X:78
T:No.78 Humours Of Whiskey
C:slip jig
M:9/8
L:1/8
K:D
G2A Bee Bee|GFG BGB AFD|
G2A Bee Bee|dcd (3ABAG FED:|
d2e fdf ecA|dcd fdf gfe|
d2e fdf ecA|Bcd (3ABAG FED|
d2e fdf ecA|dcd fdf gfe|
d2e fga ecA|Bcd (3ABAG FED||
